svg/business/celebrate_fill.svg

<?xml version="1.0" encoding="UTF-8"?>
<svg width="24px" height="24px" viewBox="0 0 24 24" version="1.1" xmlns="http://www.w3.org/2000/svg" xmlns:xlink="http://www.w3.org/1999/xlink">
    <title>celebrate_fill</title>
    <g id="Icon" stroke="none" stroke-width="1" fill="none" fill-rule="evenodd">
        <g id="Business" transform="translate(-769.000000, -432.000000)" fill-rule="nonzero">
            <g id="celebrate_fill" transform="translate(769.000000, 432.000000)">
                <path d="M24,0 L24,24 L0,24 L0,0 L24,0 Z M12.5935,23.2578 L12.5819,23.2595 L12.5109,23.295 L12.4919,23.2987 L12.4767,23.295 L12.4057,23.2595 C12.3958,23.2564 12.387,23.259 12.3821,23.2649 L12.378,23.2758 L12.3609,23.7031 L12.3659,23.7235 L12.3769,23.7357 L12.4805,23.8097 L12.4953,23.8136 L12.5071,23.8097 L12.6107,23.7357 L12.6233,23.7197 L12.6267,23.7031 L12.6096,23.2758 C12.6076,23.2657 12.601,23.2593 12.5935,23.2578 Z M12.8584,23.1453 L12.8445,23.1473 L12.6598,23.2397 L12.6499,23.2499 L12.6472,23.2611 L12.6651,23.6906 L12.6699,23.7034 L12.6784,23.7105 L12.8793,23.8032 C12.8914,23.8069 12.9022,23.803 12.9078,23.7952 L12.9118,23.7812 L12.8777,23.1665 C12.8753,23.1546 12.8674,23.147 12.8584,23.1453 Z M12.143,23.1473 C12.1332,23.1424 12.1222,23.1453 12.1156,23.1526 L12.1099,23.1665 L12.0758,23.7812 C12.0751,23.7927 12.0828,23.8019 12.0926,23.8046 L12.1083,23.8032 L12.3092,23.7105 L12.3186,23.7024 L12.3225,23.6906 L12.3404,23.2611 L12.3372,23.2485 L12.3278,23.2397 L12.143,23.1473 Z" id="MingCute"></path>
                <path d="M8.07631664,7.25933094 L8.17149,7.34315 L16.6568,15.8284 C16.8979,16.0696 16.9995,16.417 16.9264,16.7501 C16.86235,17.041475 16.6722781,17.2868359 16.4113859,17.4226072 L16.2954,17.4739 L5.90996,21.3001 C3.95750146,22.0194171 2.0574879,20.1845402 2.65063143,18.236293 L2.69983,18.09 L6.52604,7.70455 C6.64393,7.38455 6.91677,7.14669 7.24986,7.07354 C7.49967,7.01867 7.75754063,7.06211938 7.97259375,7.18900438 L8.07631664,7.25933094 Z M17.1071,11.6035 C18.0184,11.6515 19.2674,11.8445 20.3533,12.496 C20.8268,12.7801 20.9804,13.3944 20.6963,13.8679 C20.4324,14.3076714 19.883873,14.4715245 19.4277478,14.2651419 L19.3243,14.2109 C18.6423,13.8018 17.7701,13.6412 17.002,13.6008 C16.686925,13.584225 16.3676875,13.582275 16.0514172,13.6050328 L15.7364,13.6364 C15.1901,13.7139 14.6842,13.3341 14.6062,12.7878 C14.5281,12.241 14.908,11.7345 15.4547,11.6564 C15.9988,11.5789 16.5597,11.5747 17.1071,11.6035 Z M19.1316,8.81799 C19.6839,8.81799 20.1316,9.26571 20.1316,9.81799 C20.1316,10.3308493 19.745573,10.7535005 19.2482239,10.8112626 L19.1316,10.81799 L18.4245,10.81799 C17.8722,10.81799 17.4245,10.3703 17.4245,9.81799 C17.4245,9.30515857 17.810527,8.88248347 18.3078761,8.8247178 L18.4245,8.81799 L19.1316,8.81799 Z M15.9497,8.05018 C16.3101615,8.41066 16.3378893,8.97789503 16.0328834,9.3701835 L15.9497,9.46439 L14.889,10.5251 C14.4985,10.9156 13.8653,10.9156 13.4748,10.5251 C13.1143385,10.1645462 13.0866107,9.59733101 13.3916166,9.20504604 L13.4748,9.11084 L14.5355,8.05018 C14.926,7.65965 15.5591,7.65965 15.9497,8.05018 Z M13.3628,2.78414 C13.8114,4.12996 13.5714,5.60383 13.2905,6.63385 C13.1161,7.2732 12.8981,7.9037 12.6015,8.49733 C12.3545,8.99131 11.7538,9.19153 11.2598,8.94454 C10.7663,8.69779 10.566,8.09802 10.8119,7.60431 C11.049,7.12891 11.2214,6.61927 11.361,6.10762 C11.5877273,5.27623818 11.7022231,4.37338529 11.5269519,3.63345651 L11.4655,3.4166 C11.2908,2.89265 11.574,2.32633 12.0979,2.15169 C12.6219,1.97704 13.1882,2.2602 13.3628,2.78414 Z M18.7781,5.22181 C19.1686,5.61233 19.1686,6.2455 18.7781,6.63602 L18.071,7.34313 C17.6805,7.73365 17.0473,7.73365 16.6568,7.34313 C16.2663,6.95261 16.2663,6.31944 16.6568,5.92892 L17.3639,5.22181 C17.7544,4.83129 18.3876,4.83129 18.7781,5.22181 Z" id="形状" fill="#09244B"></path>
            </g>
        </g>
    </g>
</svg>

<svg xmlns="http://www.w3.org/2000/svg" width="24" height="24"><g fill="none" fill-rule="nonzero"><path d="M24 0v24H0V0zM12.594 23.258l-.012.002-.071.035-.02.004-.014-.004-.071-.036c-.01-.003-.019 0-.024.006l-.004.01-.017.428.005.02.01.013.104.074.015.004.012-.004.104-.074.012-.016.004-.017-.017-.427c-.002-.01-.009-.017-.016-.018m.264-.113-.014.002-.184.093-.01.01-.003.011.018.43.005.012.008.008.201.092c.012.004.023 0 .029-.008l.004-.014-.034-.614c-.003-.012-.01-.02-.02-.022m-.715.002a.023.023 0 0 0-.027.006l-.006.014-.034.614c0 .012.007.02.017.024l.015-.002.201-.093.01-.008.003-.011.018-.43-.003-.012-.01-.01z"/><path fill="#09244B" d="m8.076 7.26.095.083 8.486 8.485a1 1 0 0 1-.246 1.595l-.116.05L5.91 21.3c-1.952.72-3.853-1.115-3.26-3.064l.05-.146L6.526 7.705a1 1 0 0 1 1.447-.516zm9.031 4.344c.911.048 2.16.24 3.246.892a1 1 0 0 1-.925 1.77l-.104-.055c-.682-.41-1.554-.57-2.322-.61a7.666 7.666 0 0 0-.95.004l-.316.031a1 1 0 0 1-.281-1.98 8.587 8.587 0 0 1 1.652-.053m2.025-2.786a1 1 0 0 1 .116 1.993l-.116.007h-.708a1 1 0 0 1-.116-1.993l.116-.007zM15.95 8.05a1 1 0 0 1 .083 1.32l-.083.094-1.061 1.061a1 1 0 0 1-1.497-1.32l.083-.094 1.06-1.06a1 1 0 0 1 1.415 0m-2.587-5.266c.448 1.346.208 2.82-.072 3.85a10.11 10.11 0 0 1-.69 1.863 1 1 0 0 1-1.79-.893c.238-.475.41-.985.55-1.496.227-.832.341-1.735.166-2.475l-.061-.216a1 1 0 1 1 1.897-.633m5.415 2.438a1 1 0 0 1 0 1.414l-.707.707a1 1 0 1 1-1.414-1.414l.707-.707a1 1 0 0 1 1.414 0"/></g></svg>
